X: 0
T: Crown Point  v.1
P: piffero primo a0971
C: Roy Watrous
%R: polka, march
S: http://ancients.sudburymuster.org/mus/med/pdf/crownpthC0.pdf
Z: 2020 John Chambers <jc:trillian.mit.edu>
M: 2/4
L: 1/16
K: D
(3ABc |\
d2de f2a2 | gfed c2(3ABc | d2de f2f2 | edcB A2(3ABc |\
d2f2 TA2e2 | g2TA2 f2a2 | gfed cABc | d2f2 d2 :|
|: z2 |\
c2cd e2A2 | e2ef g2A2 | fa2f d2f2 | edcB A2(3ABc |\
d2f2 TA2e2 | g2TA2 f2a2 | gfed cABc | d2f2 d2 :|


